X:42
T:Mariera qui voudra
R:
S:
N:p. 81
A:Champagne
G:
O:France
Z:<anamnese@laposte.net>
M:4/4
L:1/8
Q:1/4=135
K:G
d2B2 g2d2 | d2 BB gg d2 | dd dd dd ed | dd ed ef g2 |
dd B2 gg d2 | d>e dc BA | BG | dd B2 gg d2 | d>e dc BA G2 |]
